X:681
T: MARIA ZU LIEBEN IST ALLZEIT MEIN SINN
N: E2083
O: Europa, Mitteleuropa, Deutschland
R: geistlich, Marien - Lied
M: 3/4
L: 1/8
K: G
D2 | G2G2A2 | B2B2Bc | d2B2A2 | G2z2
D2 | G2G2A2 | B2B2Bc | d2B2A2 | G2z2
Bc | d2B2d2 | dcA2c2 | B2GBdB | A2z2
D2 | G2G2A2 | B2B2Bc | d2B2A2 | G2z2

